src/assets/images/clients/lyft_logo.svg

<svg width="57" height="40" viewBox="0 0 57 40" fill="none" xmlns="http://www.w3.org/2000/svg">
<g clip-path="url(#clip0_615_5171)">
<path fill-rule="evenodd" clip-rule="evenodd" d="M0.212891 0.941662H8.7844V23.6667C8.7844 27.2631 10.4497 29.4053 11.7665 30.3236C10.3724 31.5479 6.11229 32.6191 2.93661 30.0174C1.06434 28.4839 0.212891 25.9622 0.212891 23.5901V0.941662ZM53.7814 19.8188V17.4307H56.3956V9.05237H53.5248C52.4227 4.02222 47.8894 0.25293 42.4679 0.25293C36.2224 0.25293 31.1596 5.25462 31.1596 11.4242V30.9901C32.9389 31.2372 35.0587 30.9594 36.8622 29.4819C38.7342 27.9481 39.5857 25.4267 39.5857 23.0546V22.3338H43.8666V13.9555H39.5857V11.4242H39.5959C39.5959 9.85744 40.8817 8.58729 42.4679 8.58729C44.0539 8.58729 45.3448 9.85744 45.3448 11.4242V19.8188C45.3448 25.9884 50.413 30.9901 56.6582 30.9901V22.6557C55.0723 22.6557 53.7814 21.3856 53.7814 19.8188ZM21.318 9.05237V21.3484C21.318 22.0464 20.7318 22.6124 20.0083 22.6124C19.2849 22.6124 18.6987 22.0464 18.6987 21.3484V9.05237H10.2173V23.5138C10.2173 26.1152 11.1103 29.4053 15.1745 30.4766C19.243 31.549 21.6032 29.329 21.6032 29.329C21.3882 30.7915 19.9938 31.8628 17.7477 32.0924C16.0482 32.2659 13.8748 31.7098 12.7907 31.2507V38.9124C15.5532 39.7172 18.4751 39.9772 21.3346 39.429C26.5239 38.4343 29.7991 34.1495 29.7991 28.449V9.05237H21.318Z" fill="#99BAFF"/>
</g>
<defs>
<clipPath id="clip0_615_5171">
<rect width="56.7442" height="40" fill="white"/>
</clipPath>
</defs>
</svg>

<svg xmlns="http://www.w3.org/2000/svg" width="57" height="40" fill="none" xmlns:v="https://vecta.io/nano"><g clip-path="url(#A)"><path fill-rule="evenodd" d="M.213.942h8.572v22.725c0 3.596 1.665 5.739 2.982 6.657-1.394 1.224-5.654 2.296-8.83-.306C1.064 28.484.213 25.962.213 23.59V.942zm53.569 18.877v-2.388h2.614V9.052h-2.871C52.423 4.022 47.889.253 42.468.253c-6.245 0-11.308 5.002-11.308 11.171V30.99c1.779.247 3.899-.031 5.703-1.508 1.872-1.534 2.724-4.055 2.724-6.427v-.721h4.281v-8.378h-4.281v-2.531h.01c0-1.567 1.286-2.837 2.872-2.837s2.877 1.27 2.877 2.837v8.395c0 6.17 5.068 11.171 11.313 11.171v-8.334c-1.586 0-2.877-1.27-2.877-2.837zM21.318 9.052v12.296c0 .698-.586 1.264-1.31 1.264s-1.31-.566-1.31-1.264V9.052h-8.481v14.461c0 2.601.893 5.892 4.957 6.963s6.429-1.148 6.429-1.148c-.215 1.462-1.609 2.534-3.856 2.763-1.699.174-3.873-.383-4.957-.842v7.662c2.763.805 5.684 1.065 8.544.517 5.189-.995 8.465-5.279 8.465-10.98V9.052h-8.481z" fill="#99baff"/></g><defs><clipPath id="A"><path fill="#fff" d="M0 0h56.744v40H0z"/></clipPath></defs></svg>
